Sources/FrostedUI/Resources/Icons.xcassets/unpin24.imageset/unpin-24.svg

<svg width="24" height="24" viewBox="0 0 24 24" fill="none" xmlns="http://www.w3.org/2000/svg" data-fui-icon="true">
  <path
    d="M1.21973 1.21973C1.51262 0.926862 1.98739 0.926843 2.28027 1.21973L22.7803 21.7197C23.0731 22.0126 23.0731 22.4874 22.7803 22.7803C22.4874 23.0732 22.0126 23.0731 21.7197 22.7803L17.0273 18.0879C16.9711 18.0316 16.8948 18 16.8152 18H13.05C12.8843 18 12.75 18.1343 12.75 18.3V22.25C12.75 22.6641 12.4141 22.9998 12 23C11.5858 23 11.25 22.6642 11.25 22.25V18.3C11.25 18.1343 11.1157 18 10.95 18H6.55957C4.36666 17.9999 2.94017 15.6919 3.9209 13.7305L5.82617 9.92188C5.94069 9.69281 5.99999 9.43969 6 9.18359V7.18481C6 7.10525 5.96839 7.02894 5.91213 6.97268L1.21973 2.28027C0.926833 1.98738 0.926833 1.51262 1.21973 1.21973ZM15.0498 1C16.6789 1.00012 18 2.32103 18 3.9502V9.18359C18 9.43973 18.0593 9.69278 18.1738 9.92188L20.0791 13.7305C20.5312 14.6348 20.4704 15.6121 20.0596 16.4034C19.973 16.5703 19.751 16.5909 19.6181 16.458L18.9167 15.7565C18.8301 15.67 18.8077 15.5402 18.8398 15.4221C18.9279 15.0984 18.9065 14.7397 18.7373 14.4014L16.833 10.5918C16.6144 10.1545 16.5 9.67253 16.5 9.18359V3.9502C16.5 3.14946 15.8505 2.50012 15.0498 2.5H8.9502C8.14938 2.5 7.5 3.14938 7.5 3.9502C7.5 4.09362 7.32659 4.16545 7.22517 4.06403L6.29131 3.13018C6.21043 3.04929 6.18137 2.92887 6.22512 2.82318C6.6679 1.75332 7.72037 1 8.9502 1H15.0498ZM7.5 9.18359C7.49999 9.67249 7.38559 10.1545 7.16699 10.5918L5.2627 14.4014C4.78065 15.3654 5.48173 16.4999 6.55957 16.5H14.7152C14.9825 16.5 15.1163 16.1769 14.9273 15.9879L7.94056 9.00111C7.77798 8.83853 7.5 8.95367 7.5 9.18359Z"
    fill="currentColor"
  />
</svg>

<svg xmlns="http://www.w3.org/2000/svg" width="24" height="24" fill="none" data-fui-icon="true" viewBox="0 0 24 24"><path fill="currentColor" d="M1.22 1.22a.75.75 0 0 1 1.06 0l20.5 20.5a.75.75 0 0 1-1.06 1.06l-4.693-4.692a.3.3 0 0 0-.212-.088H13.05a.3.3 0 0 0-.3.3v3.95a.75.75 0 0 1-1.5 0V18.3a.3.3 0 0 0-.3-.3H6.56c-2.193 0-3.62-2.308-2.64-4.27l1.906-3.808c.115-.23.174-.482.174-.738v-2a.3.3 0 0 0-.088-.211L1.22 2.28a.75.75 0 0 1 0-1.06M15.05 1A2.95 2.95 0 0 1 18 3.95v5.234c0 .256.06.509.174.738l1.905 3.808a2.92 2.92 0 0 1-.02 2.673c-.086.167-.308.188-.44.055l-.702-.701a.34.34 0 0 1-.077-.335 1.43 1.43 0 0 0-.103-1.02l-1.904-3.81a3.15 3.15 0 0 1-.333-1.408V3.95c0-.8-.65-1.45-1.45-1.45h-6.1c-.8 0-1.45.65-1.45 1.45a.161.161 0 0 1-.275.114l-.934-.934a.28.28 0 0 1-.066-.307A2.95 2.95 0 0 1 8.95 1zM7.5 9.184c0 .488-.114.97-.333 1.408l-1.904 3.81A1.45 1.45 0 0 0 6.56 16.5h8.155a.3.3 0 0 0 .212-.512L7.941 9a.258.258 0 0 0-.441.183"/></svg>
